X:5889
T:Scottish à Gilles
O:england
C:Trad 1, 48
M:2/4
L:1/16
K:G
D2GB BABG|D2BG D2DB,|C2AC FCAF|\
GFGA B2G2|D2GB BABG|D2BG D2DB,|
C2AC FCAF|BAGF G4:|\
|:DB,DB, D2B,E-|ECEC E2D2|ABcB AGFE|
DEDC B,2G,2|DB,DB, D2 B,E-|\
ECEC E2D2|ABcB AGFE|DGBA G4||


